X:1
T:Standin In The Need of Prayer
T:I'm troubled in mind
T:Copyright 1881 by The Riverside Press
T:Rodeheaver's Plantation Melodies
Z:Rodeheaver's Plantation Melodies
L:1/8
Q:1/4=100
M:4/4
K:Ab
V:1 treble nm="Soprano" snm="S."
V:1
 E2 | F2 F4 EF | A2 A4 E2 | F2 F4 EC | E6 E2 | F2 F4 EF | A2 c4 c2 | BA(A F3) G2 | F6 || E2 | %10
w: I'm|trou- bled. I'm- *|trou- bled. I'm|trou- bled in- *|mind. If|Je- sus don't- *|help me I|sure- * ly- * will|die.|O|
 F2 F4 EF | A2 A4 E2 | %12
w: Je- sus my- *|Sav- iour, on|
"_2. When ladened with trouble and burdened with grief,\n    To Jesus in secret I'll go for relief.\n\n3. In dark days of bondage to Jesus I prayed,\n    To help me to bear it and gave me His aid." F2 F4 EC | %13
w: Thee I'll dep- *|
 E6 E2 | F2 F4 EF | A2 c4 c2 | BA(A F3) G2 | F6!D.C.! |] %18
w: end. When|trou- bles are- *|near me, you'll|be- * my- * true|friend.|

